X: 10783
U: Q=!diminuendo(!
U: q=!diminuendo)!
M: 2/4
L: 1/16
K: Bb
(dc) |\
|: (Bc) |\
d2d2 e2e2 | (dcBc) d2Bc | d2d2 e2e2 | (dcBc) d2d2 |\
gaba g2d2 | (e4 d2g2) |[1 ^f2f2 fgab | g4 g2 :|[2 B2B2 ABcA | B4 "^D.C."B2 |]
ag |\
g^f=ef d2f2 | gfga b2(ag) | g^f=ef d2c2 | c=BAB G2(ag) |\
g^f=ef d2f2 | g^fga b2g2 | Qa2qa2 ^f2f2 | g4- "^D.C."g2 |]



